X: 23206
T: Leading Role
R: reel
M: 4/4
K: Amajor
|:c2BA FECB,|A,2CE FECE|c2BA FAEB|cFAF cFAB|
c2BA FECB,|A,2CE FECE|c2BA FECB,|1 B,A,CE A3B:|2 B,A,CE A2Ac||
|:eAeA eece|ffec BAFA|cFAF cFAB|c2BA FECE|
eABA e2ce|ffec BAFA|c2BA FECB,|1 B,A,CE A2Ac:|2 B,A,CE A3B||

